the-plus-addons-for-block-editor/assets/images/block-icons/metro-style.svg

<svg width="36" height="36" viewBox="0 0 36 36" fill="none" xmlns="http://www.w3.org/2000/svg">
<path fill-rule="evenodd" clip-rule="evenodd" d="M30 5H6C5.44772 5 5 5.44772 5 6V30C5 30.5523 5.44772 31 6 31H30C30.5523 31 31 30.5523 31 30V6C31 5.44772 30.5523 5 30 5ZM6 3C4.34315 3 3 4.34315 3 6V30C3 31.6569 4.34315 33 6 33H30C31.6569 33 33 31.6569 33 30V6C33 4.34315 31.6569 3 30 3H6Z" fill="#5900E7"/>
<path fill-rule="evenodd" clip-rule="evenodd" d="M9 9V15H15V9H9ZM8.5 7C7.67157 7 7 7.67157 7 8.5V15.5C7 16.3284 7.67157 17 8.5 17H15.5C16.3284 17 17 16.3284 17 15.5V8.5C17 7.67157 16.3284 7 15.5 7H8.5Z" fill="#1DD8A7"/>
<path fill-rule="evenodd" clip-rule="evenodd" d="M21 15V21H27V15H21ZM20.5 13C19.6716 13 19 13.6716 19 14.5V21.5C19 22.3284 19.6716 23 20.5 23H27.5C28.3284 23 29 22.3284 29 21.5V14.5C29 13.6716 28.3284 13 27.5 13H20.5Z" fill="#1DD8A7"/>
<path fill-rule="evenodd" clip-rule="evenodd" d="M9 21V27H15V21H9ZM8.5 19C7.67157 19 7 19.6716 7 20.5V27.5C7 28.3284 7.67157 29 8.5 29H15.5C16.3284 29 17 28.3284 17 27.5V20.5C17 19.6716 16.3284 19 15.5 19H8.5Z" fill="#1DD8A7"/>
<path fill-rule="evenodd" clip-rule="evenodd" d="M29 29V26.5C29 25.6716 28.3284 25 27.5 25H20.5C19.6716 25 19 25.6716 19 26.5V29H21V27H27V29H29Z" fill="#1DD8A7"/>
<path fill-rule="evenodd" clip-rule="evenodd" d="M19 7V9.5C19 10.3284 19.6716 11 20.5 11H27.5C28.3284 11 29 10.3284 29 9.5V7H27V9H21V7H19Z" fill="#1DD8A7"/>
</svg>

<svg fill="none" xmlns="http://www.w3.org/2000/svg" viewBox="0 0 36 36"><path fill-rule="evenodd" clip-rule="evenodd" d="M30 5H6a1 1 0 0 0-1 1v24a1 1 0 0 0 1 1h24a1 1 0 0 0 1-1V6a1 1 0 0 0-1-1ZM6 3a3 3 0 0 0-3 3v24a3 3 0 0 0 3 3h24a3 3 0 0 0 3-3V6a3 3 0 0 0-3-3H6Z" fill="#5900E7"/><path fill-rule="evenodd" clip-rule="evenodd" d="M9 9v6h6V9H9Zm-.5-2A1.5 1.5 0 0 0 7 8.5v7A1.5 1.5 0 0 0 8.5 17h7a1.5 1.5 0 0 0 1.5-1.5v-7A1.5 1.5 0 0 0 15.5 7h-7ZM21 15v6h6v-6h-6Zm-.5-2a1.5 1.5 0 0 0-1.5 1.5v7a1.5 1.5 0 0 0 1.5 1.5h7a1.5 1.5 0 0 0 1.5-1.5v-7a1.5 1.5 0 0 0-1.5-1.5h-7ZM9 21v6h6v-6H9Zm-.5-2A1.5 1.5 0 0 0 7 20.5v7A1.5 1.5 0 0 0 8.5 29h7a1.5 1.5 0 0 0 1.5-1.5v-7a1.5 1.5 0 0 0-1.5-1.5h-7ZM29 29v-2.5a1.5 1.5 0 0 0-1.5-1.5h-7a1.5 1.5 0 0 0-1.5 1.5V29h2v-2h6v2h2ZM19 7v2.5a1.5 1.5 0 0 0 1.5 1.5h7A1.5 1.5 0 0 0 29 9.5V7h-2v2h-6V7h-2Z" fill="#1DD8A7"/></svg>
